packages/foundations/assets/icons/functional/images/editing/bin_32.svg

<svg width="32" height="32" viewBox="0 0 32 32" fill="none" xmlns="http://www.w3.org/2000/svg">
<g clip-path="url(#clip0_2204_2773)">
<path fill-rule="evenodd" clip-rule="evenodd" d="M4 11C4 10.4375 4.4375 10 5 10H6.1562C7.7188 10 9 11.2812 9 12.8438V27C9 27.5625 9.4688 28 10 28H22.1562C22.625 28 23 27.625 23 27.1562V12.875C23 11.2812 24.2812 10 25.875 10H27C27.5625 10 28 10.4375 28 11C28 11.5625 27.5625 12 27 12H25.875C25.4062 12 25 12.4062 25 12.875V27.1562C25 28.7188 23.7188 30 22.1562 30H10C8.3438 30 7 28.6562 7 27V12.8438C7 12.375 6.625 12 6.1562 12H5C4.4375 12 4 11.5625 4 11ZM20 2C20.5625 2 21 2.4375 21 3V6H27C27.5625 6 28 6.4375 28 7C28 7.5625 27.5625 8 27 8H5C4.4375 8 4 7.5625 4 7C4 6.4375 4.4375 6 5 6H11V3C11 2.4375 11.4688 2 12 2H20ZM19 4H13V6H19V4ZM11 25V14C11 13.4375 11.4688 13 12 13C12.5625 13 13 13.4375 13 14V25C13 25.5625 12.5625 26 12 26C11.4688 26 11 25.5625 11 25ZM15 25V14C15 13.4375 15.4375 13 16 13C16.5625 13 17 13.4375 17 14V25C17 25.5625 16.5625 26 16 26C15.4375 26 15 25.5625 15 25ZM19 25V14C19 13.4375 19.4688 13 20 13C20.5625 13 21 13.4375 21 14V25C21 25.5625 20.5625 26 20 26C19.4688 26 19 25.5625 19 25Z" fill="#1A1C1F"/>
</g>
<defs>
<clipPath id="clip0_2204_2773">
<rect width="32" height="32" fill="white"/>
</clipPath>
</defs>
</svg>

<svg xmlns="http://www.w3.org/2000/svg" width="32" height="32" fill="none"><g clip-path="url(#a)"><path fill="#1A1C1F" fill-rule="evenodd" d="M4 11c0-.562.438-1 1-1h1.156A2.854 2.854 0 0 1 9 12.844V27c0 .563.469 1 1 1h12.156a.84.84 0 0 0 .844-.844V12.875A2.867 2.867 0 0 1 25.875 10H27c.563 0 1 .438 1 1s-.437 1-1 1h-1.125a.894.894 0 0 0-.875.875v14.281A2.854 2.854 0 0 1 22.156 30H10a3 3 0 0 1-3-3V12.844A.84.84 0 0 0 6.156 12H5c-.562 0-1-.437-1-1m16-9c.563 0 1 .438 1 1v3h6c.563 0 1 .438 1 1s-.437 1-1 1H5c-.562 0-1-.437-1-1s.438-1 1-1h6V3c0-.562.469-1 1-1zm-1 2h-6v2h6zm-8 21V14c0-.562.469-1 1-1 .563 0 1 .438 1 1v11c0 .563-.437 1-1 1-.531 0-1-.437-1-1m4 0V14c0-.562.438-1 1-1s1 .438 1 1v11c0 .563-.437 1-1 1s-1-.437-1-1m4 0V14c0-.562.469-1 1-1 .563 0 1 .438 1 1v11c0 .563-.437 1-1 1-.531 0-1-.437-1-1" clip-rule="evenodd"/></g><defs><clipPath id="a"><path fill="#fff" d="M0 0h32v32H0z"/></clipPath></defs></svg>
